X:335
T:The Hole in the Hedge
M:6/8
L:1/8
K:C
C2 E EDE|GED E2 D|C2 E EDE|GEC D2 E|\
C2 E EDE|GEG c2 c|cde dcB|1 GEC D2 E :|2AEC D2 G|
c2 e dcA|GEG GAB|c2 e dcA|GEC D2 G|\
c2 e dcA|AEA AAB|cBc AcA|AEC D2 C :|
